app/dist/common/images/angang-steel.svg

<svg height="18" viewBox="0 0 18 18" width="18" xmlns="http://www.w3.org/2000/svg"><path d="m0 0h18v18h-18z" fill="#f0f3fa"/><path d="m4.56 7-1.56 4h5.5v.5c0 .53-2.09 1-3.5 1v.5h8v-.5c-1.94 0-3.5-.5-3.5-1v-.5h5.5l-1.56-4h-2.44c0 .67-.8 1-1.5 1v-2c0-.53.68-1 .92-1h.58v-1h-4v1h.7c.56 0 .8.78.8 1v2c-.7 0-1.5-.33-1.5-1z" fill="#e6211a"/></svg>

<!-- by TradingView --><svg width="18" height="18" viewBox="0 0 18 18" xmlns="http://www.w3.org/2000/svg"><path fill="#F0F3FA" d="M0 0h18v18H0z"/><path d="M4.56 7 3 11h5.5v.5c0 .53-2.09 1-3.5 1v.5h8v-.5c-1.94 0-3.5-.5-3.5-1V11H15l-1.56-4H11c0 .67-.8 1-1.5 1V6c0-.53.68-1 .92-1H11V4H7v1h.7c.56 0 .8.78.8 1v2C7.8 8 7 7.67 7 7H4.56Z" fill="#E6211A"/></svg>
